flaticon/online-marketing/browser.svg

<svg xmlns="http://www.w3.org/2000/svg" width="32" height="32" viewBox="0 0 24 24">
    <path d="M 23.609375 3.074219 L 0.390625 3.074219 C 0.175781 3.074219 0 3.246094 0 3.460938 L 0 20.539062 C 0 20.753906 0.175781 20.925781 0.390625 20.925781 L 23.609375 20.925781 C 23.824219 20.925781 24 20.753906 24 20.539062 L 24 3.460938 C 24 3.246094 23.824219 3.074219 23.609375 3.074219 Z M 23.222656 3.851562 L 23.222656 6.710938 L 0.777344 6.710938 L 0.777344 3.851562 Z M 0.777344 20.148438 L 0.777344 7.488281 L 23.222656 7.488281 L 23.222656 20.148438 Z M 0.777344 20.148438"/>
    <path d="M7.640625 8.808594L3.078125 8.808594C2.863281 8.808594 2.691406 8.980469 2.691406 9.195312 2.691406 9.410156 2.863281 9.585938 3.078125 9.585938L7.640625 9.585938C7.855469 9.585938 8.03125 9.410156 8.03125 9.195312 8.03125 8.980469 7.855469 8.808594 7.640625 8.808594zM7.640625 10.65625L3.078125 10.65625C2.863281 10.65625 2.691406 10.832031 2.691406 11.042969 2.691406 11.257812 2.863281 11.433594 3.078125 11.433594L7.640625 11.433594C7.855469 11.433594 8.03125 11.257812 8.03125 11.042969 8.03125 10.832031 7.855469 10.65625 7.640625 10.65625zM7.640625 12.503906L3.078125 12.503906C2.863281 12.503906 2.691406 12.679688 2.691406 12.894531 2.691406 13.109375 2.863281 13.28125 3.078125 13.28125L7.640625 13.28125C7.855469 13.28125 8.03125 13.109375 8.03125 12.894531 8.03125 12.679688 7.855469 12.503906 7.640625 12.503906zM7.640625 14.355469L3.078125 14.355469C2.863281 14.355469 2.691406 14.527344 2.691406 14.742188 2.691406 14.957031 2.863281 15.132812 3.078125 15.132812L7.640625 15.132812C7.855469 15.132812 8.03125 14.957031 8.03125 14.742188 8.03125 14.527344 7.855469 14.355469 7.640625 14.355469zM7.640625 16.203125L3.078125 16.203125C2.863281 16.203125 2.691406 16.378906 2.691406 16.59375 2.691406 16.804688 2.863281 16.980469 3.078125 16.980469L7.640625 16.980469C7.855469 16.980469 8.03125 16.804688 8.03125 16.59375 8.03125 16.378906 7.855469 16.203125 7.640625 16.203125zM7.640625 18.050781L3.078125 18.050781C2.863281 18.050781 2.691406 18.226562 2.691406 18.441406 2.691406 18.65625 2.863281 18.828125 3.078125 18.828125L7.640625 18.828125C7.855469 18.828125 8.03125 18.65625 8.03125 18.441406 8.03125 18.226562 7.855469 18.050781 7.640625 18.050781zM14.28125 14.355469L9.71875 14.355469C9.503906 14.355469 9.332031 14.527344 9.332031 14.742188 9.332031 14.957031 9.503906 15.132812 9.71875 15.132812L14.28125 15.132812C14.496094 15.132812 14.667969 14.957031 14.667969 14.742188 14.667969 14.527344 14.496094 14.355469 14.28125 14.355469zM14.28125 16.203125L9.71875 16.203125C9.503906 16.203125 9.332031 16.378906 9.332031 16.59375 9.332031 16.804688 9.503906 16.980469 9.71875 16.980469L14.28125 16.980469C14.496094 16.980469 14.667969 16.804688 14.667969 16.59375 14.667969 16.378906 14.496094 16.203125 14.28125 16.203125zM14.28125 18.050781L9.71875 18.050781C9.503906 18.050781 9.332031 18.226562 9.332031 18.441406 9.332031 18.65625 9.503906 18.828125 9.71875 18.828125L14.28125 18.828125C14.496094 18.828125 14.667969 18.65625 14.667969 18.441406 14.667969 18.226562 14.496094 18.050781 14.28125 18.050781zM14.28125 8.808594L9.71875 8.808594C9.503906 8.808594 9.332031 8.980469 9.332031 9.195312L9.332031 12.894531C9.332031 13.109375 9.503906 13.28125 9.71875 13.28125L14.28125 13.28125C14.496094 13.28125 14.667969 13.109375 14.667969 12.894531L14.667969 9.195312C14.667969 8.980469 14.496094 8.808594 14.28125 8.808594zM13.890625 12.503906L10.109375 12.503906 10.109375 9.585938 13.890625 9.585938zM20.921875 12.503906L16.359375 12.503906C16.144531 12.503906 15.96875 12.679688 15.96875 12.894531 15.96875 13.109375 16.144531 13.28125 16.359375 13.28125L20.921875 13.28125C21.136719 13.28125 21.308594 13.109375 21.308594 12.894531 21.308594 12.679688 21.136719 12.503906 20.921875 12.503906zM20.921875 10.65625L16.359375 10.65625C16.144531 10.65625 15.96875 10.832031 15.96875 11.042969 15.96875 11.257812 16.144531 11.433594 16.359375 11.433594L20.921875 11.433594C21.136719 11.433594 21.308594 11.257812 21.308594 11.042969 21.308594 10.832031 21.136719 10.65625 20.921875 10.65625zM20.921875 8.808594L16.359375 8.808594C16.144531 8.808594 15.96875 8.980469 15.96875 9.195312 15.96875 9.410156 16.144531 9.585938 16.359375 9.585938L20.921875 9.585938C21.136719 9.585938 21.308594 9.410156 21.308594 9.195312 21.308594 8.980469 21.136719 8.808594 20.921875 8.808594zM20.921875 14.355469L16.359375 14.355469C16.144531 14.355469 15.96875 14.527344 15.96875 14.742188L15.96875 18.441406C15.96875 18.65625 16.144531 18.828125 16.359375 18.828125L20.921875 18.828125C21.136719 18.828125 21.308594 18.65625 21.308594 18.441406L21.308594 14.742188C21.308594 14.527344 21.136719 14.355469 20.921875 14.355469zM20.53125 18.050781L16.746094 18.050781 16.746094 15.132812 20.53125 15.132812zM5.503906 6.394531L22.039062 6.394531C22.253906 6.394531 22.425781 6.222656 22.425781 6.007812L22.425781 4.554688C22.425781 4.339844 22.253906 4.167969 22.039062 4.167969L5.503906 4.167969C5.289062 4.167969 5.113281 4.339844 5.113281 4.554688L5.113281 6.007812C5.113281 6.222656 5.289062 6.394531 5.503906 6.394531zM5.890625 4.945312L21.648438 4.945312 21.648438 5.617188 5.890625 5.617188zM1.675781 5.667969C1.78125 5.667969 1.878906 5.628906 1.953125 5.554688 2.023438 5.484375 2.066406 5.382812 2.066406 5.28125 2.066406 5.179688 2.023438 5.078125 1.953125 5.003906 1.878906 4.933594 1.78125 4.890625 1.675781 4.890625 1.574219 4.890625 1.472656 4.933594 1.402344 5.003906 1.328125 5.078125 1.289062 5.179688 1.289062 5.28125 1.289062 5.382812 1.328125 5.484375 1.402344 5.554688 1.476562 5.628906 1.574219 5.667969 1.675781 5.667969zM2.933594 5.667969C3.035156 5.667969 3.136719 5.628906 3.207031 5.554688 3.28125 5.484375 3.324219 5.382812 3.324219 5.28125 3.324219 5.179688 3.28125 5.078125 3.207031 5.003906 3.136719 4.933594 3.035156 4.890625 2.933594 4.890625 2.832031 4.890625 2.730469 4.933594 2.660156 5.003906 2.585938 5.078125 2.542969 5.179688 2.542969 5.28125 2.542969 5.382812 2.585938 5.484375 2.660156 5.554688 2.730469 5.628906 2.832031 5.667969 2.933594 5.667969zM4.191406 5.667969C4.292969 5.667969 4.394531 5.628906 4.464844 5.554688 4.539062 5.484375 4.578125 5.382812 4.578125 5.28125 4.578125 5.179688 4.539062 5.078125 4.464844 5.003906 4.394531 4.933594 4.292969 4.890625 4.191406 4.890625 4.085938 4.890625 3.988281 4.933594 3.914062 5.003906 3.84375 5.078125 3.800781 5.179688 3.800781 5.28125 3.800781 5.382812 3.84375 5.484375 3.914062 5.554688 3.988281 5.628906 4.085938 5.667969 4.191406 5.667969zM4.191406 5.667969"/>
</svg>

<svg xmlns="http://www.w3.org/2000/svg" width="32" height="32" viewBox="0 0 24 24">
    <path d="M23.61 3.074H.39a.388.388 0 0 0-.39.387v17.078c0 .215.176.387.39.387h23.22c.214 0 .39-.172.39-.387V3.461a.388.388 0 0 0-.39-.387zm-.387.778V6.71H.777V3.85zM.777 20.148V7.488h22.446v12.66zm0 0"/>
    <path d="M7.64 8.809H3.079a.388.388 0 1 0 0 .777h4.563a.388.388 0 0 0 0-.777zm0 0M7.64 10.656H3.079a.388.388 0 1 0 0 .777h4.563c.214 0 .39-.175.39-.39a.391.391 0 0 0-.39-.387zm0 0M7.64 12.504H3.079a.388.388 0 0 0 0 .777h4.563a.388.388 0 1 0 0-.777zm0 0M7.64 14.355H3.079a.388.388 0 1 0 0 .777h4.563a.388.388 0 0 0 0-.777zm0 0M7.64 16.203H3.079a.388.388 0 0 0 0 .777h4.563c.214 0 .39-.175.39-.386a.392.392 0 0 0-.39-.39zm0 0M7.64 18.05H3.079a.388.388 0 0 0 0 .778h4.563a.388.388 0 1 0 0-.777zm0 0M14.281 14.355H9.72a.388.388 0 1 0 0 .777h4.562a.388.388 0 0 0 0-.777zm0 0M14.281 16.203H9.72a.388.388 0 0 0 0 .777h4.562a.388.388 0 1 0 0-.777zm0 0M14.281 18.05H9.72a.388.388 0 0 0 0 .778h4.562a.388.388 0 1 0 0-.777zm0 0M14.281 8.809H9.72a.385.385 0 0 0-.387.386v3.7c0 .214.172.386.387.386h4.562a.385.385 0 0 0 .387-.386v-3.7a.385.385 0 0 0-.387-.386zm-.39 3.695h-3.782V9.586h3.782zm0 0M20.922 12.504h-4.563a.388.388 0 1 0 0 .777h4.563a.388.388 0 1 0 0-.777zm0 0M20.922 10.656h-4.563a.391.391 0 0 0-.39.387c0 .215.176.39.39.39h4.563a.388.388 0 0 0 0-.777zm0 0M20.922 8.809h-4.563a.388.388 0 1 0 0 .777h4.563a.388.388 0 0 0 0-.777zm0 0M20.922 14.355h-4.563a.388.388 0 0 0-.39.387v3.7c0 .214.176.386.39.386h4.563a.385.385 0 0 0 .387-.387v-3.699a.385.385 0 0 0-.387-.387zm-.39 3.696h-3.786v-2.918h3.785zm0 0M5.504 6.395h16.535a.385.385 0 0 0 .387-.387V4.555a.385.385 0 0 0-.387-.387H5.504a.388.388 0 0 0-.39.387v1.453c0 .215.175.387.39.387zm.387-1.45h15.757v.672H5.891zm0 0M1.676 5.668a.387.387 0 0 0 .39-.387.41.41 0 0 0-.113-.277.403.403 0 0 0-.277-.113.394.394 0 0 0-.274.113.393.393 0 0 0 0 .55.384.384 0 0 0 .274.114zm0 0M2.934 5.668c.101 0 .203-.04.273-.113a.381.381 0 0 0 0-.551.394.394 0 0 0-.273-.113.394.394 0 0 0-.391.39c0 .102.043.203.117.274.07.074.172.113.274.113zm0 0M4.191 5.668c.102 0 .204-.04.274-.113a.393.393 0 0 0 0-.55.394.394 0 0 0-.274-.114.403.403 0 0 0-.277.113.41.41 0 0 0-.113.277.387.387 0 0 0 .39.387zm0 0"/>
</svg>
